X:1
T: Palm Sunday
C:
R:Jig
Q:180
K:Am
M:6/8
L:1/16
B2|A2G2E2 G4E2|G4E2 G4B2|A4B2 c4d2|e4d2 e2^f2g2|e6 d2B2A2|B2A2G2 B2c2d2|e2d2c2 B2A2G2|B4A2 A4B2|
A2G2E2 G4E2|G4E2 G4B2|A4B2 c4d2|e4d2 e2^f2g2|e6 d2B2A2|B2A2G2 B2c2d2|e2d2c2 B2A2G2|B4A2 A4e2|
a2^g2a2 e2^f2g2|a2^g2a2 b2=g2e2|g2^f2g2 g2=f2e2|d2B2G2 G2B2d2|e2^f2g2 d2e2d2|B2A2G2 B2c2d2|e2d2c2 B2A2G2|B4A2 A4e2|
a2^g2a2 e2^f2g2|a2^g2a2 b2=g2e2|g2^f2g2 g2=f2e2|d2B2G2 G2B2d2|e2^f2g2 d2e2d2|B2A2G2 B2c2d2|e2d2c2 B2A2G2|B4A2 A4||
